src/assets/icons/months,fancy,febuary-2.svg

<svg width="48" height="48" viewBox="0 0 48 48" fill="none" xmlns="http://www.w3.org/2000/svg">
<rect opacity="0.2" x="4" y="6" width="40" height="40" rx="4" fill="black"/>
<path d="M10.1442 36H12.6044V31.1932H17.3374V29.1648H12.6044V26.392H17.8487V24.3636H10.1442V36ZM19.5036 36H27.3672V33.9716H21.9638V31.1932H26.9411V29.1648H21.9638V26.392H27.3445V24.3636H19.5036V36ZM29.3004 36H34.272C36.8857 36 38.2777 34.6364 38.2777 32.7841C38.2777 31.0625 37.0447 30.0227 35.7209 29.9602V29.8466C36.9311 29.5739 37.8232 28.7159 37.8232 27.3466C37.8232 25.6023 36.5277 24.3636 33.9595 24.3636H29.3004V36ZM31.7607 33.9886V30.8977H33.8232C35.005 30.8977 35.7379 31.5795 35.7379 32.5398C35.7379 33.4148 35.1413 33.9886 33.7663 33.9886H31.7607ZM31.7607 29.233V26.3523H33.63C34.7209 26.3523 35.3402 26.9148 35.3402 27.7557C35.3402 28.6761 34.5902 29.233 33.5845 29.233H31.7607Z" fill="black"/>
<g opacity="0.4">
<path d="M10 4C10 2.89543 10.8954 2 12 2C13.1046 2 14 2.89543 14 4V8C14 9.10457 13.1046 10 12 10C10.8954 10 10 9.10457 10 8V4Z" fill="black"/>
<path d="M34 4C34 2.89543 34.8954 2 36 2C37.1046 2 38 2.89543 38 4V8C38 9.10457 37.1046 10 36 10C34.8954 10 34 9.10457 34 8V4Z" fill="black"/>
</g>
<path fill-rule="evenodd" clip-rule="evenodd" d="M10 6.00869C7.52043 6.04456 6.11466 6.22849 5.17157 7.17157C4 8.34315 4 10.2288 4 14V16H44V14C44 10.2288 44 8.34315 42.8284 7.17157C41.8853 6.22849 40.4796 6.04456 38 6.00869V8C38 9.10457 37.1046 10 36 10C34.8954 10 34 9.10457 34 8V6H14V8C14 9.10457 13.1046 10 12 10C10.8954 10 10 9.10457 10 8V6.00869Z" fill="black"/>
</svg>

<svg xmlns="http://www.w3.org/2000/svg" width="48" height="48" fill="none" viewBox="0 0 48 48">
  <rect width="40" height="40" x="4" y="6" fill="#000" opacity=".2" rx="4"/>
  <path fill="#000" d="M10.144 36h2.46v-4.807h4.733v-2.028h-4.733v-2.773h5.245v-2.028h-7.705V36zm9.36 0h7.863v-2.028h-5.403v-2.779h4.977v-2.028h-4.977v-2.773h5.38v-2.028h-7.84V36zm9.796 0h4.972c2.614 0 4.006-1.364 4.006-3.216 0-1.721-1.233-2.761-2.557-2.824v-.113c1.21-.273 2.102-1.131 2.102-2.5 0-1.745-1.295-2.983-3.864-2.983H29.3V36zm2.46-2.011v-3.091h2.063c1.182 0 1.915.681 1.915 1.642 0 .875-.597 1.449-1.972 1.449h-2.005zm0-4.756v-2.88h1.87c1.09 0 1.71.562 1.71 1.403 0 .92-.75 1.477-1.756 1.477h-1.823z"/>
  <g opacity=".4">
    <path fill="#000" d="M10 4a2 2 0 114 0v4a2 2 0 11-4 0V4zM34 4a2 2 0 114 0v4a2 2 0 11-4 0V4z"/>
  </g>
  <path fill="#000" fill-rule="evenodd" d="M10 6.009c-2.48.036-3.885.22-4.828 1.163C4 8.343 4 10.229 4 14v2h40v-2c0-3.771 0-5.657-1.172-6.828-.943-.944-2.348-1.127-4.828-1.163V8a2 2 0 11-4 0V6H14v2a2 2 0 11-4 0V6.009z" clip-rule="evenodd"/>
</svg>
